; generated by PrusaSlicer 2.5.2 on 2023-04-04 at 09:18:25 UTC


;
;
; 

; external perimeters extrusion width = 0.60mm
; perimeters extrusion width = 0.50mm
; infill extrusion width = 0.50mm
; solid infill extrusion width = 0.50mm
; top infill extrusion width = 0.45mm
; support material extrusion width = 0.38mm
; first layer extrusion width = 0.42mm

M73 P0 R25
M73 Q0 S25
M201 X1000 Y1000 Z200 E8000 ; sets maximum accelerations, mm/sec^2
M203 X200 Y200 Z12 E120 ; sets maximum feedrates, mm / sec
M204 P1250 R1250 T1250 ; sets acceleration (P, T) and retract acceleration (R), mm/sec^2
M205 X8.00 Y8.00 Z0.40 E4.50 ; sets the jerk limits, mm/sec
M205 S0 T0 ; sets the minimum extruding and travel feed rate, mm/sec
M107
;TYPE:Custom
M862.3 P "MK3SMMU2S" ; printer model check
M862.1 P0.4 ; nozzle diameter check
M115 U3.12.2 ; tell printer latest fw version
G90 ; use absolute coordinates
M83 ; extruder relative mode
M104 S215 ; set extruder temp
M140 S60 ; set bed temp
M190 S60 ; wait for bed temp
M109 S215 ; wait for extruder temp
G28 W ; home all without mesh bed level
G80 ; mesh bed leveling

; Send the filament type to the MMU2.0 unit.
; E stands for extruder number, F stands for filament type (0: default; 1:flex; 2: PVA)
M403 E0 F0
M403 E1 F0
M403 E2 F0
M403 E3 F0
M403 E4 F0


;go outside print area
G1 Y-3 F1000
G1 Z0.4 F1000
; select extruder
T1
; initial load
G1 X55 E29 F1073
G1 X5 E29 F1800
M73 P1 R25
M73 Q1 S25
G1 X55 E8 F2000
G1 Z0.3 F1000
G92 E0
G1 X240 E25 F2200
G1 Y-2 F1000
G1 X55 E25 F1400
G1 Z0.2 F1000
M73 P2 R24
M73 Q2 S25
G1 X5 E4 F1000
G92 E0


M221 S95
G92 E0

; Don't change E values below. Excessive value can damage the printer.

M907 E538 ; set extruder motor current
G21 ; set units to millimeters
G90 ; use absolute coordinates
M83 ; use relative distances for extrusion
T1
M900 K0.05 ; Filament gcode LA 1.5
M900 K30 ; Filament gcode LA 1.0
M107
;LAYER_CHANGE
;Z:0.2
;HEIGHT:0.2
;BEFORE_LAYER_CHANGE
G92 E0.0
;0.2


G1 E-.8 F2100
G1 Z.4 F720
;AFTER_LAYER_CHANGE
;0.2
G1 X98.236 Y75.906 F10800
G1 Z.2 F720
G1 E.8 F2100
M204 S800
;TYPE:Skirt/Brim
;WIDTH:0.42
G1 F1200
G1 X100 Y75.123 E.06051
G1 X150 Y75.123 E1.56771
G1 X151.307 Y75.515 E.04278
G1 X152.349 Y77.139 E.06051
G1 X155.797 Y99.737 E.71674
G1 X155.769 Y110.625 E.34139
G1 X152.349 Y132.861 E.70541
G1 X151.764 Y134.094 E.04278
G1 X150 Y134.877 E.06051
G1 X100 Y134.877 E1.56771
G1 X98.693 Y134.485 E.04278
M73 P3 R24
M73 Q3 S24
G1 X97.651 Y132.861 E.06051
G1 X94.203 Y110.263 E.71674
G1 X94.231 Y99.375 E.34139
G1 X97.651 Y77.139 E.70541
G1 X98.21 Y75.961 E.0409
M204 S1000
; printing object 230403-rf_probe_holder_innards_7-5_andrew_mcdowell.stl id:0 copy 0
;WIPE_START
G1 F8640
G1 X100 Y75.123 E-.45623
G1 X101.316 Y75.123 E-.30377
;WIPE_END
G1 E-.04 F2100
G1 Z.6 F720
G1 X100.43 Y110.263 F10800
G1 Z.2 F720
G1 E.8 F2100
M204 S800
;TYPE:Support material
G1 F1200
G1 X96.58 Y110.263 E.1207
G1 X96.58 Y99.737 E.33006
G1 X100.43 Y99.737 E.1207
G1 X100.43 Y110.207 E.32828
M204 S1000
G1 X99.861 Y110.094 F10800
M204 S800
G1 F1200
G1 X99.861 Y100.076 E.3141
G1 X99.442 Y100.076 E.01314
G1 X99.442 Y109.924 E.30878
G1 X99.023 Y109.924 E.01314
G1 X99.023 Y100.076 E.30878
G1 X98.604 Y100.076 E.01314
G1 X98.604 Y109.924 E.30878
G1 X98.185 Y109.924 E.01314
G1 X98.185 Y100.076 E.30878
G1 X97.766 Y100.076 E.01314
G1 X97.766 Y109.924 E.30878
G1 X97.348 Y109.924 E.01314
G1 X97.348 Y100.076 E.30878
G1 X96.929 Y100.076 E.01314
G1 X96.929 Y110.094 E.3141
M204 S1000
;WIPE_START
G1 F8640
G1 X96.929 Y106.802 E-.76
;WIPE_END
G1 E-.04 F2100
G1 Z.6 F720
G1 X107.107 Y110.263 F10800
G1 Z.2 F720
G1 E.8 F2100
M204 S800
G1 F1200
G1 X103.57 Y110.263 E.1109
G1 X103.57 Y99.737 E.33006
G1 X107.107 Y99.737 E.1109
G1 X107.107 Y110.207 E.32828
M204 S1000
G1 X106.565 Y110.094 F10800
M204 S800
G1 F1200
G1 X106.565 Y100.076 E.3141
G1 X106.146 Y100.076 E.01314
G1 X106.146 Y109.924 E.30878
G1 X105.727 Y109.924 E.01314
G1 X105.727 Y100.076 E.30878
G1 X105.308 Y100.076 E.01314
G1 X105.308 Y109.924 E.30878
G1 X104.889 Y109.924 E.01314
G1 X104.889 Y100.076 E.30878
G1 X104.47 Y100.076 E.01314
G1 X104.47 Y109.924 E.30878
G1 X104.051 Y109.924 E.01314
M73 P4 R24
M73 Q4 S24
G1 X104.051 Y99.906 E.3141
M204 S1000
;WIPE_START
G1 F8640
G1 X104.051 Y103.198 E-.76
;WIPE_END
G1 E-.04 F2100
G1 Z.6 F720
G1 X146.43 Y110.263 F10800
G1 Z.2 F720
G1 E.8 F2100
M204 S800
G1 F1200
G1 X142.893 Y110.263 E.1109
G1 X142.893 Y99.737 E.33006
G1 X146.43 Y99.737 E.1109
G1 X146.43 Y110.207 E.32828
M204 S1000
G1 X145.949 Y110.094 F10800
M204 S800
G1 F1200
G1 X145.949 Y100.076 E.3141
G1 X145.53 Y100.076 E.01314
G1 X145.53 Y109.924 E.30878
G1 X145.111 Y109.924 E.01314
G1 X145.111 Y100.076 E.30878
G1 X144.692 Y100.076 E.01314
G1 X144.692 Y109.924 E.30878
G1 X144.273 Y109.924 E.01314
G1 X144.273 Y100.076 E.30878
G1 X143.854 Y100.076 E.01314
G1 X143.854 Y109.924 E.30878
G1 X143.435 Y109.924 E.01314
G1 X143.435 Y99.906 E.3141
M204 S1000
;WIPE_START
G1 F8640
G1 X143.435 Y103.198 E-.76
;WIPE_END
G1 E-.04 F2100
G1 Z.6 F720
G1 X153.42 Y110.263 F10800
G1 Z.2 F720
G1 E.8 F2100
M204 S800
G1 F1200
G1 X149.57 Y110.263 E.1207
G1 X149.57 Y99.737 E.33006
G1 X153.42 Y99.737 E.1207
G1 X153.42 Y110.207 E.32828
M204 S1000
G1 X153.071 Y110.094 F10800
M204 S800
G1 F1200
G1 X153.071 Y100.076 E.3141
G1 X152.652 Y100.076 E.01314
G1 X152.652 Y109.924 E.30878
G1 X152.234 Y109.924 E.01314
G1 X152.234 Y100.076 E.30878
G1 X151.815 Y100.076 E.01314
G1 X151.815 Y109.924 E.30878
G1 X151.396 Y109.924 E.01314
G1 X151.396 Y100.076 E.30878
G1 X150.977 Y100.076 E.01314
G1 X150.977 Y109.924 E.30878
G1 X150.558 Y109.924 E.01314
G1 X150.558 Y100.076 E.30878
G1 X150.139 Y100.076 E.01314
G1 X150.139 Y110.094 E.3141
M204 S1000
;WIPE_START
G1 F8640
G1 X150.139 Y106.802 E-.76
;WIPE_END
G1 E-.04 F2100
G1 Z.6 F720
G1 X148.509 Y96.785 F10800
G1 Z.2 F720
G1 E.8 F2100
M204 S800
;TYPE:Perimeter
;WIDTH:0.419999
G1 F1200
G1 X148.384 Y96.873 E.00479
;WIDTH:0.444381
G1 X148.201 Y97.279 E.01485
G1 X148.201 Y112.721 E.51551
G1 X148.384 Y113.127 E.01485
;WIDTH:0.419999
G1 X148.531 Y113.23 E.00563
G1 X148.779 Y113.287 E.00797
G1 X149.213 Y113.287 E.01362
G1 X149.213 Y131.713 E.57773
G1 X100.787 Y131.713 E1.51836
G1 X100.787 Y113.287 E.57773
M73 P5 R24
M73 Q5 S24
G1 X101.221 Y113.287 E.01362
G1 X101.469 Y113.23 E.00797
G1 X101.616 Y113.127 E.00563
;WIDTH:0.444381
G1 X101.799 Y112.721 E.01485
G1 X101.799 Y97.279 E.51551
G1 X101.616 Y96.873 E.01485
;WIDTH:0.419999
G1 X101.469 Y96.77 E.00563
G1 X101.221 Y96.713 E.00797
G1 X100.787 Y96.713 E.01362
G1 X100.787 Y78.287 E.57773
G1 X149.213 Y78.287 E1.51836
G1 X149.213 Y96.713 E.57773
G1 X148.779 Y96.713 E.01362
G1 X148.563 Y96.763 E.00693
M204 S1000
G1 X148.696 Y97.109 F10800
M204 S800
;TYPE:External perimeter
G1 F1200
G1 X148.59 Y97.279 E.00627
G1 X148.59 Y112.721 E.4842
G1 X148.647 Y112.857 E.0046
G1 X148.779 Y112.91 E.00445
G1 X149.59 Y112.91 E.02544
G1 X149.59 Y132.09 E.60137
G1 X100.41 Y132.09 E1.542
G1 X100.41 Y112.91 E.60137
G1 X101.221 Y112.91 E.02544
G1 X101.353 Y112.857 E.00445
G1 X101.41 Y112.721 E.0046
G1 X101.41 Y97.279 E.4842
G1 X101.353 Y97.143 E.0046
G1 X101.221 Y97.09 E.00445
G1 X100.41 Y97.09 E.02544
G1 X100.41 Y77.91 E.60137
G1 X149.59 Y77.91 E1.542
M73 P6 R24
M73 Q6 S24
G1 X149.59 Y97.09 E.60137
M73 P6 R23
G1 X148.756 Y97.108 E.02616
M204 S1000
G1 X148.498 Y97.136 F10800
;WIPE_START
G1 F8640
G1 X148.59 Y97.279 E-.05499
G1 X148.59 Y100.332 E-.70501
;WIPE_END
G1 E-.04 F2100
G1 Z.6 F720
G1 X113.298 Y96.73 F10800
G1 Z.2 F720
G1 E.8 F2100
M204 S800
;TYPE:Perimeter
G1 F1200
G1 X113.466 Y96.768 E.00537
G1 X113.613 Y96.87 E.0056
;WIDTH:0.444381
G1 X113.799 Y97.279 E.015
G1 X113.799 Y112.721 E.51551
G1 X113.613 Y113.13 E.015
;WIDTH:0.419999
G1 X113.353 Y113.272 E.00927
G1 X113.221 Y113.287 E.00415
G1 X102.779 Y113.287 E.32743
G1 X102.531 Y113.23 E.00797
G1 X102.384 Y113.127 E.00563
;WIDTH:0.444381
G1 X102.201 Y112.721 E.01485
G1 X102.201 Y97.279 E.51551
G1 X102.384 Y96.873 E.01485
;WIDTH:0.419999
G1 X102.531 Y96.77 E.00563
G1 X102.779 Y96.713 E.00797
G1 X113.24 Y96.717 E.32801
M204 S1000
G1 X113.221 Y97.09 F10800
M204 S800
;TYPE:External perimeter
G1 F1200
G1 X113.352 Y97.142 E.0044
G1 X113.41 Y97.279 E.00464
G1 X113.41 Y112.721 E.4842
G1 X113.352 Y112.858 E.00464
G1 X113.221 Y112.91 E.0044
G1 X102.779 Y112.91 E.32743
G1 X102.647 Y112.857 E.00445
G1 X102.59 Y112.721 E.0046
G1 X102.59 Y97.279 E.4842
G1 X102.696 Y97.109 E.00627
G1 X102.779 Y97.09 E.00266
G1 X113.161 Y97.09 E.32555
M204 S1000
G1 X113.32 Y96.99 F10800
;WIPE_START
G1 F8640
G1 X113.352 Y97.142 E-.04558
G1 X113.41 Y97.279 E-.0342
G1 X113.41 Y100.224 E-.68021
;WIPE_END
G1 E-.04 F2100
G1 Z.6 F720
G1 X135.298 Y96.73 F10800
G1 Z.2 F720
G1 E.8 F2100
M204 S800
;TYPE:Perimeter
G1 F1200
G1 X135.466 Y96.768 E.00537
G1 X135.613 Y96.87 E.0056
;WIDTH:0.444381
G1 X135.799 Y97.279 E.015
G1 X135.799 Y112.721 E.51551
G1 X135.613 Y113.13 E.015
;WIDTH:0.419999
G1 X135.353 Y113.272 E.00927
G1 X135.221 Y113.287 E.00415
G1 X114.779 Y113.287 E.64097
G1 X114.534 Y113.232 E.00785
G1 X114.387 Y113.13 E.0056
;WIDTH:0.444381
G1 X114.201 Y112.721 E.015
G1 X114.201 Y97.279 E.51551
G1 X114.387 Y96.87 E.015
;WIDTH:0.419999
M73 Q6 S23
G1 X114.647 Y96.728 E.00927
G1 X114.779 Y96.713 E.00415
G1 X135.24 Y96.717 E.64155
M204 S1000
G1 X135.221 Y97.09 F10800
M204 S800
;TYPE:External perimeter
G1 F1200
G1 X135.352 Y97.142 E.0044
G1 X135.41 Y97.279 E.00464
G1 X135.41 Y112.721 E.4842
G1 X135.352 Y112.858 E.00464
G1 X135.221 Y112.91 E.0044
G1 X114.779 Y112.91 E.64097
G1 X114.648 Y112.858 E.0044
M73 P7 R23
M73 Q7 S23
G1 X114.59 Y112.721 E.00464
G1 X114.59 Y97.279 E.4842
G1 X114.697 Y97.108 E.0063
G1 X114.779 Y97.09 E.00262
G1 X135.161 Y97.09 E.63909
M204 S1000
G1 X135.32 Y96.99 F10800
;WIPE_START
G1 F8640
G1 X135.352 Y97.142 E-.04558
G1 X135.41 Y97.279 E-.0342
G1 X135.41 Y100.224 E-.68021
;WIPE_END
G1 E-.04 F2100
G1 Z.6 F720
G1 X147.299 Y96.731 F10800
G1 Z.2 F720
G1 E.8 F2100
M204 S800
;TYPE:Perimeter
G1 F1200
G1 X147.469 Y96.77 E.00546
G1 X147.616 Y96.873 E.00563
;WIDTH:0.444381
G1 X147.799 Y97.279 E.01485
G1 X147.799 Y112.721 E.51551
G1 X147.616 Y113.127 E.01485
;WIDTH:0.419999
G1 X147.469 Y113.23 E.00563
G1 X147.221 Y113.287 E.00797
G1 X136.779 Y113.287 E.32743
G1 X136.534 Y113.232 E.00785
G1 X136.387 Y113.13 E.0056
;WIDTH:0.444381
G1 X136.201 Y112.721 E.015
G1 X136.201 Y97.279 E.51551
G1 X136.387 Y96.87 E.015
;WIDTH:0.419999
G1 X136.647 Y96.728 E.00927
G1 X136.779 Y96.713 E.00415
G1 X147.241 Y96.717 E.32804
M204 S1000
G1 X147.221 Y97.09 F10800
M204 S800
;TYPE:External perimeter
G1 F1200
G1 X147.353 Y97.143 E.00445
G1 X147.41 Y97.279 E.0046
G1 X147.41 Y112.721 E.4842
G1 X147.353 Y112.857 E.0046
G1 X147.221 Y112.91 E.00445
G1 X136.779 Y112.91 E.32743
G1 X136.648 Y112.858 E.0044
G1 X136.59 Y112.721 E.00464
G1 X136.59 Y97.279 E.4842
G1 X136.697 Y97.108 E.0063
G1 X136.779 Y97.09 E.00262
G1 X147.161 Y97.09 E.32555
M204 S1000
G1 X147.321 Y96.989 F10800
;WIPE_START
G1 F8640
G1 X147.353 Y97.143 E-.04592
G1 X147.41 Y97.279 E-.03385
G1 X147.41 Y100.225 E-.68023
;WIPE_END
G1 E-.04 F2100
G1 Z.6 F720
G1 X149.043 Y114.221 F10800
G1 Z.2 F720
G1 E.8 F2100
M204 S800
;TYPE:Solid infill
;WIDTH:0.4207
G1 F1200
G1 X147.976 Y113.154 E.04739
G1 X147.864 Y113.365 E.00751
G1 X147.74 Y113.451 E.00475
G1 X148.874 Y114.585 E.05036
G1 X148.874 Y115.119 E.01678
G1 X147.354 Y113.6 E.0675
G1 X147.239 Y113.626 E.00372
G1 X146.846 Y113.626 E.01232
G1 X148.874 Y115.654 E.09006
G1 X148.874 Y116.188 E.01678
G1 X146.312 Y113.626 E.11379
G1 X145.778 Y113.626 E.01678
G1 X148.874 Y116.722 E.13752
G1 X148.874 Y117.256 E.01678
G1 X145.244 Y113.626 E.16126
G1 X144.709 Y113.626 E.01678
G1 X148.874 Y117.791 E.18499
G1 X148.874 Y118.325 E.01678
G1 X144.175 Y113.626 E.20873
G1 X143.641 Y113.626 E.01678
G1 X148.874 Y118.859 E.23246
G1 X148.874 Y119.393 E.01678
G1 X143.107 Y113.626 E.25619
G1 X142.572 Y113.626 E.01678
G1 X148.874 Y119.928 E.27993
G1 X148.874 Y120.462 E.01678
G1 X142.038 Y113.626 E.30366
G1 X141.504 Y113.626 E.01678
G1 X148.874 Y120.996 E.3274
G1 X148.874 Y121.53 E.01678
G1 X140.97 Y113.626 E.35113
G1 X140.435 Y113.626 E.01678
G1 X148.874 Y122.065 E.37486
G1 X148.874 Y122.599 E.01678
G1 X139.901 Y113.626 E.3986
G1 X139.367 Y113.626 E.01678
M73 P8 R23
G1 X148.874 Y123.133 E.42233
G1 X148.874 Y123.668 E.01678
M73 Q8 S23
G1 X138.832 Y113.626 E.44607
G1 X138.298 Y113.626 E.01678
G1 X148.874 Y124.202 E.4698
G1 X148.874 Y124.736 E.01678
G1 X137.764 Y113.626 E.49353
G1 X137.23 Y113.626 E.01678
G1 X148.874 Y125.27 E.51727
G1 X148.874 Y125.805 E.01678
G1 X136.686 Y113.617 E.54144
G1 X136.569 Y113.603 E.0037
G1 X136.384 Y113.537 E.00616
G1 X136.142 Y113.37 E.00925
G1 X136 Y113.107 E.00937
G1 X135.875 Y113.34 E.0083
G1 X148.874 Y126.339 E.57747
G1 X148.874 Y126.873 E.01678
G1 X135.558 Y113.558 E.59152
G1 X135.431 Y113.603 E.00423
G1 X135.093 Y113.626 E.01067
G1 X148.874 Y127.407 E.6122
G1 X148.874 Y127.942 E.01678
G1 X134.558 Y113.626 E.63594
G1 X134.024 Y113.626 E.01678
G1 X148.874 Y128.476 E.65967
G1 X148.874 Y129.01 E.01678
G1 X133.49 Y113.626 E.68341
G1 X132.956 Y113.626 E.01678
G1 X148.874 Y129.544 E.70714
G1 X148.874 Y130.079 E.01678
G1 X132.421 Y113.626 E.73087
G1 X131.887 Y113.626 E.01678
G1 X148.874 Y130.613 E.75461
G1 X148.874 Y131.147 E.01678
G1 X131.353 Y113.626 E.77834
G1 X130.819 Y113.626 E.01678
M73 P9 R23
M73 Q9 S23
G1 X148.566 Y131.374 E.7884
G1 X148.031 Y131.374 E.01678
G1 X130.284 Y113.626 E.7884
G1 X129.75 Y113.626 E.01678
G1 X147.497 Y131.374 E.7884
G1 X146.963 Y131.374 E.01678
G1 X129.216 Y113.626 E.7884
G1 X128.682 Y113.626 E.01678
G1 X146.429 Y131.374 E.7884
G1 X145.894 Y131.374 E.01678
G1 X128.147 Y113.626 E.7884
G1 X127.613 Y113.626 E.01678
G1 X145.36 Y131.374 E.7884
G1 X144.826 Y131.374 E.01678
G1 X127.079 Y113.626 E.7884
G1 X126.544 Y113.626 E.01678
G1 X144.292 Y131.374 E.7884
G1 X143.757 Y131.374 E.01678
G1 X126.01 Y113.626 E.7884
G1 X125.476 Y113.626 E.01678
G1 X143.223 Y131.374 E.7884
G1 X142.689 Y131.374 E.01678
M73 P9 R22
G1 X124.942 Y113.626 E.7884
G1 X124.407 Y113.626 E.01678
M73 P10 R22
M73 Q10 S23
G1 X142.155 Y131.374 E.7884
G1 X141.62 Y131.374 E.01678
G1 X123.873 Y113.626 E.7884
G1 X123.339 Y113.626 E.01678
G1 X141.086 Y131.374 E.7884
G1 X140.552 Y131.374 E.01678
G1 X122.805 Y113.626 E.7884
G1 X122.27 Y113.626 E.01678
G1 X140.018 Y131.374 E.7884
G1 X139.483 Y131.374 E.01678
G1 X121.736 Y113.626 E.7884
G1 X121.202 Y113.626 E.01678
G1 X138.949 Y131.374 E.7884
G1 X138.415 Y131.374 E.01678
G1 X120.668 Y113.626 E.7884
G1 X120.133 Y113.626 E.01678
G1 X137.88 Y131.374 E.7884
G1 X137.346 Y131.374 E.01678
M73 Q10 S22
G1 X119.599 Y113.626 E.7884
G1 X119.065 Y113.626 E.01678
G1 X136.812 Y131.374 E.7884
G1 X136.278 Y131.374 E.01678
M73 P11 R22
G1 X118.531 Y113.626 E.7884
G1 X117.996 Y113.626 E.01678
M73 Q11 S22
G1 X135.743 Y131.374 E.7884
G1 X135.209 Y131.374 E.01678
G1 X117.462 Y113.626 E.7884
G1 X116.928 Y113.626 E.01678
G1 X134.675 Y131.374 E.7884
G1 X134.141 Y131.374 E.01678
G1 X116.393 Y113.626 E.7884
G1 X115.859 Y113.626 E.01678
G1 X133.606 Y131.374 E.7884
G1 X133.072 Y131.374 E.01678
G1 X115.325 Y113.626 E.7884
G1 X114.791 Y113.626 E.01678
G1 X132.538 Y131.374 E.7884
G1 X132.004 Y131.374 E.01678
G1 X113.908 Y113.278 E.80388
G1 X113.858 Y113.37 E.00328
G1 X113.626 Y113.53 E.00887
G1 X131.469 Y131.374 E.79267
G1 X130.935 Y131.374 E.01678
G1 X113.186 Y113.624 E.7885
G1 X112.651 Y113.624 E.01678
G1 X130.401 Y131.374 E.7885
G1 X129.867 Y131.374 E.01678
M73 P12 R22
G1 X112.117 Y113.624 E.78849
G1 X111.583 Y113.624 E.01678
M73 Q12 S22
G1 X129.332 Y131.374 E.78849
G1 X128.798 Y131.374 E.01678
G1 X111.049 Y113.625 E.78848
G1 X110.515 Y113.625 E.01678
G1 X128.264 Y131.374 E.78848
G1 X127.729 Y131.374 E.01678
G1 X109.981 Y113.625 E.78847
G1 X109.447 Y113.625 E.01678
G1 X127.195 Y131.374 E.78847
G1 X126.661 Y131.374 E.01678
G1 X108.912 Y113.625 E.78846
G1 X108.378 Y113.625 E.01678
G1 X126.127 Y131.374 E.78846
G1 X125.592 Y131.374 E.01678
G1 X107.844 Y113.625 E.78845
G1 X107.31 Y113.625 E.01678
G1 X125.058 Y131.374 E.78845
G1 X124.524 Y131.374 E.01678
G1 X106.776 Y113.626 E.78844
G1 X106.242 Y113.626 E.01678
