; generated by PrusaSlicer 2.5.2 on 2023-04-04 at 16:12:58 UTC


;
;
; 

; external perimeters extrusion width = 0.45mm
; perimeters extrusion width = 0.45mm
; infill extrusion width = 0.45mm
; solid infill extrusion width = 0.45mm
; top infill extrusion width = 0.40mm
; support material extrusion width = 0.35mm
; first layer extrusion width = 0.42mm

M73 P0 R71
M73 Q0 S72
M201 X1000 Y1000 Z200 E8000 ; sets maximum accelerations, mm/sec^2
M203 X200 Y200 Z12 E120 ; sets maximum feedrates, mm / sec
M204 P1250 R1250 T1250 ; sets acceleration (P, T) and retract acceleration (R), mm/sec^2
M205 X8.00 Y8.00 Z0.40 E4.50 ; sets the jerk limits, mm/sec
M205 S0 T0 ; sets the minimum extruding and travel feed rate, mm/sec
M107
;TYPE:Custom
M862.3 P "MK3SMMU2S" ; printer model check
M862.1 P0.4 ; nozzle diameter check
M115 U3.12.2 ; tell printer latest fw version
G90 ; use absolute coordinates
M83 ; extruder relative mode
M104 S215 ; set extruder temp
M140 S60 ; set bed temp
M190 S60 ; wait for bed temp
M109 S215 ; wait for extruder temp
G28 W ; home all without mesh bed level
G80 ; mesh bed leveling

; Send the filament type to the MMU2.0 unit.
; E stands for extruder number, F stands for filament type (0: default; 1:flex; 2: PVA)
M403 E0 F0
M403 E1 F0
M403 E2 F0
M403 E3 F0
M403 E4 F0


;go outside print area
G1 Y-3 F1000
G1 Z0.4 F1000
; select extruder
T1
; initial load
G1 X55 E29 F1073
G1 X5 E29 F1800
G1 X55 E8 F2000
G1 Z0.3 F1000
G92 E0
G1 X240 E25 F2200
G1 Y-2 F1000
G1 X55 E25 F1400
G1 Z0.2 F1000
G1 X5 E4 F1000
G92 E0


M221 S95
G92 E0

; Don't change E values below. Excessive value can damage the printer.
M907 E430 ; set extruder motor current
G21 ; set units to millimeters
G90 ; use absolute coordinates
M83 ; use relative distances for extrusion
T1
M900 K0.05 ; Filament gcode LA 1.5
M900 K30 ; Filament gcode LA 1.0
M107
;LAYER_CHANGE
;Z:0.2
;HEIGHT:0.2
;BEFORE_LAYER_CHANGE
G92 E0.0
;0.2


G1 E-.8 F2100
M73 Q0 S71
G1 Z.4 F720
;AFTER_LAYER_CHANGE
;0.2
G1 X88.015 Y59.518 F10800
G1 Z.2 F720
G1 E.8 F2100
M204 S800
;TYPE:Skirt/Brim
;WIDTH:0.42
G1 F1200
G1 X89.613 Y58.48 E.05976
G1 X119.362 Y53.57 E.94539
G1 X130.638 Y53.57 E.35353
G1 X160.387 Y58.48 E.94539
G1 X161.613 Y59.079 E.04278
G1 X162.377 Y60.825 E.05976
G1 X162.377 Y149.175 E2.77015
G1 X161.985 Y150.482 E.04278
M73 P1 R71
M73 Q1 S71
G1 X160.387 Y151.52 E.05976
G1 X130.251 Y156.462 E.95753
G1 X119.362 Y156.43 E.34139
G1 X89.613 Y151.52 E.94539
G1 X88.387 Y150.921 E.04278
G1 X87.623 Y149.175 E.05976
G1 X87.623 Y60.825 E2.77015
G1 X87.997 Y59.575 E.0409
M204 S1000
; printing object 230403-probe_holder_v1.stl id:0 copy 0
;WIPE_START
G1 F8640
G1 X89.613 Y58.48 E-.45076
G1 X90.934 Y58.262 E-.30924
;WIPE_END
G1 E-.04 F2100
G1 Z.6 F720
G1 X130.251 Y60.345 F10800
G1 Z.2 F720
G1 E.8 F2100
M204 S800
;TYPE:Support material
G1 F1200
G1 X119.749 Y60.345 E.32925
G1 X119.749 Y55.915 E.1389
M73 P1 R70
G1 X130.251 Y55.915 E.32925
G1 X130.251 Y60.288 E.13713
M204 S1000
G1 X129.609 Y60.175 F10800
M204 S800
G1 F1200
G1 X129.609 Y56.254 E.12294
G1 X129.19 Y56.254 E.01314
G1 X129.19 Y60.006 E.11762
G1 X128.771 Y60.006 E.01314
G1 X128.771 Y56.254 E.11762
G1 X128.352 Y56.254 E.01314
G1 X128.352 Y60.006 E.11762
G1 X127.933 Y60.006 E.01314
G1 X127.933 Y56.254 E.11762
G1 X127.514 Y56.254 E.01314
G1 X127.514 Y60.006 E.11762
G1 X127.095 Y60.006 E.01314
G1 X127.095 Y56.254 E.11762
G1 X126.676 Y56.254 E.01314
G1 X126.676 Y60.006 E.11762
G1 X126.257 Y60.006 E.01314
G1 X126.257 Y56.254 E.11762
G1 X125.838 Y56.254 E.01314
G1 X125.838 Y60.006 E.11762
G1 X125.419 Y60.006 E.01314
G1 X125.419 Y56.254 E.11762
G1 X125 Y56.254 E.01314
G1 X125 Y60.006 E.11762
G1 X124.581 Y60.006 E.01314
G1 X124.581 Y56.254 E.11762
G1 X124.162 Y56.254 E.01314
G1 X124.162 Y60.006 E.11762
G1 X123.743 Y60.006 E.01314
G1 X123.743 Y56.254 E.11762
G1 X123.324 Y56.254 E.01314
G1 X123.324 Y60.006 E.11762
G1 X122.905 Y60.006 E.01314
G1 X122.905 Y56.254 E.11762
G1 X122.486 Y56.254 E.01314
G1 X122.486 Y60.006 E.11762
G1 X122.067 Y60.006 E.01314
G1 X122.067 Y56.254 E.11762
G1 X121.648 Y56.254 E.01314
G1 X121.648 Y60.006 E.11762
G1 X121.229 Y60.006 E.01314
G1 X121.229 Y56.254 E.11762
G1 X120.81 Y56.254 E.01314
G1 X120.81 Y60.006 E.11762
G1 X120.391 Y60.006 E.01314
G1 X120.391 Y56.085 E.12294
M204 S1000
;WIPE_START
G1 F8640
G1 X120.391 Y59.376 E-.76
;WIPE_END
G1 E-.04 F2100
G1 Z.6 F720
G1 X130.251 Y68.723 F10800
G1 Z.2 F720
G1 E.8 F2100
M204 S800
G1 F1200
G1 X119.749 Y68.723 E.32925
G1 X119.749 Y64.305 E.13853
G1 X130.251 Y64.305 E.32925
G1 X130.251 Y68.667 E.13675
M204 S1000
G1 X129.609 Y68.553 F10800
M204 S800
G1 F1200
G1 X129.609 Y64.644 E.12257
G1 X129.19 Y64.644 E.01314
G1 X129.19 Y68.384 E.11724
G1 X128.771 Y68.384 E.01314
G1 X128.771 Y64.644 E.11724
G1 X128.352 Y64.644 E.01314
G1 X128.352 Y68.384 E.11724
G1 X127.933 Y68.384 E.01314
G1 X127.933 Y64.644 E.11724
G1 X127.514 Y64.644 E.01314
G1 X127.514 Y68.384 E.11724
G1 X127.095 Y68.384 E.01314
G1 X127.095 Y64.644 E.11724
G1 X126.676 Y64.644 E.01314
G1 X126.676 Y68.384 E.11724
G1 X126.257 Y68.384 E.01314
G1 X126.257 Y64.644 E.11724
G1 X125.838 Y64.644 E.01314
G1 X125.838 Y68.384 E.11724
G1 X125.419 Y68.384 E.01314
G1 X125.419 Y64.644 E.11724
G1 X125 Y64.644 E.01314
G1 X125 Y68.384 E.11724
G1 X124.581 Y68.384 E.01314
G1 X124.581 Y64.644 E.11724
G1 X124.162 Y64.644 E.01314
G1 X124.162 Y68.384 E.11724
G1 X123.743 Y68.384 E.01314
G1 X123.743 Y64.644 E.11724
G1 X123.324 Y64.644 E.01314
G1 X123.324 Y68.384 E.11724
G1 X122.905 Y68.384 E.01314
G1 X122.905 Y64.644 E.11724
G1 X122.486 Y64.644 E.01314
G1 X122.486 Y68.384 E.11724
G1 X122.067 Y68.384 E.01314
G1 X122.067 Y64.644 E.11724
G1 X121.648 Y64.644 E.01314
G1 X121.648 Y68.384 E.11724
G1 X121.229 Y68.384 E.01314
G1 X121.229 Y64.644 E.11724
G1 X120.81 Y64.644 E.01314
G1 X120.81 Y68.384 E.11724
G1 X120.391 Y68.384 E.01314
G1 X120.391 Y64.475 E.12257
M204 S1000
;WIPE_START
G1 F8640
G1 X120.391 Y67.766 E-.76
;WIPE_END
G1 E-.04 F2100
G1 Z.6 F720
G1 X130.251 Y145.695 F10800
G1 Z.2 F720
G1 E.8 F2100
M204 S800
G1 F1200
G1 X119.749 Y145.695 E.32925
G1 X119.749 Y141.277 E.13853
G1 X130.251 Y141.277 E.32925
G1 X130.251 Y145.638 E.13675
M204 S1000
G1 X129.609 Y145.525 F10800
M204 S800
G1 F1200
G1 X129.609 Y141.616 E.12256
G1 X129.19 Y141.616 E.01314
G1 X129.19 Y145.356 E.11724
G1 X128.771 Y145.356 E.01314
G1 X128.771 Y141.616 E.11724
G1 X128.352 Y141.616 E.01314
G1 X128.352 Y145.356 E.11724
G1 X127.933 Y145.356 E.01314
G1 X127.933 Y141.616 E.11724
G1 X127.514 Y141.616 E.01314
G1 X127.514 Y145.356 E.11724
G1 X127.095 Y145.356 E.01314
G1 X127.095 Y141.616 E.11724
G1 X126.676 Y141.616 E.01314
G1 X126.676 Y145.356 E.11724
G1 X126.257 Y145.356 E.01314
G1 X126.257 Y141.616 E.11724
G1 X125.838 Y141.616 E.01314
G1 X125.838 Y145.356 E.11724
G1 X125.419 Y145.356 E.01314
G1 X125.419 Y141.616 E.11724
G1 X125 Y141.616 E.01314
G1 X125 Y145.356 E.11724
G1 X124.581 Y145.356 E.01314
G1 X124.581 Y141.616 E.11724
G1 X124.162 Y141.616 E.01314
G1 X124.162 Y145.356 E.11724
G1 X123.743 Y145.356 E.01314
G1 X123.743 Y141.616 E.11724
G1 X123.324 Y141.616 E.01314
G1 X123.324 Y145.356 E.11724
G1 X122.905 Y145.356 E.01314
G1 X122.905 Y141.616 E.11724
G1 X122.486 Y141.616 E.01314
G1 X122.486 Y145.356 E.11724
G1 X122.067 Y145.356 E.01314
G1 X122.067 Y141.616 E.11724
G1 X121.648 Y141.616 E.01314
G1 X121.648 Y145.356 E.11724
G1 X121.229 Y145.356 E.01314
G1 X121.229 Y141.616 E.11724
G1 X120.81 Y141.616 E.01314
G1 X120.81 Y145.356 E.11724
G1 X120.391 Y145.356 E.01314
G1 X120.391 Y141.447 E.12256
M204 S1000
;WIPE_START
G1 F8640
G1 X120.391 Y144.738 E-.76
;WIPE_END
G1 E-.04 F2100
G1 Z.6 F720
G1 X130.251 Y154.085 F10800
G1 Z.2 F720
G1 E.8 F2100
M204 S800
G1 F1200
G1 X119.749 Y154.085 E.32925
G1 X119.749 Y149.655 E.1389
G1 X130.251 Y149.655 E.32925
G1 X130.251 Y154.028 E.13713
M204 S1000
G1 X129.609 Y153.915 F10800
M204 S800
G1 F1200
G1 X129.609 Y149.994 E.12294
G1 X129.19 Y149.994 E.01314
G1 X129.19 Y153.746 E.11762
G1 X128.771 Y153.746 E.01314
G1 X128.771 Y149.994 E.11762
G1 X128.352 Y149.994 E.01314
G1 X128.352 Y153.746 E.11762
G1 X127.933 Y153.746 E.01314
G1 X127.933 Y149.994 E.11762
G1 X127.514 Y149.994 E.01314
G1 X127.514 Y153.746 E.11762
G1 X127.095 Y153.746 E.01314
G1 X127.095 Y149.994 E.11762
G1 X126.676 Y149.994 E.01314
G1 X126.676 Y153.746 E.11762
G1 X126.257 Y153.746 E.01314
G1 X126.257 Y149.994 E.11762
G1 X125.838 Y149.994 E.01314
G1 X125.838 Y153.746 E.11762
G1 X125.419 Y153.746 E.01314
G1 X125.419 Y149.994 E.11762
G1 X125 Y149.994 E.01314
G1 X125 Y153.746 E.11762
G1 X124.581 Y153.746 E.01314
G1 X124.581 Y149.994 E.11762
G1 X124.162 Y149.994 E.01314
G1 X124.162 Y153.746 E.11762
G1 X123.743 Y153.746 E.01314
G1 X123.743 Y149.994 E.11762
G1 X123.324 Y149.994 E.01314
G1 X123.324 Y153.746 E.11762
G1 X122.905 Y153.746 E.01314
G1 X122.905 Y149.994 E.11762
G1 X122.486 Y149.994 E.01314
G1 X122.486 Y153.746 E.11762
G1 X122.067 Y153.746 E.01314
G1 X122.067 Y149.994 E.11762
G1 X121.648 Y149.994 E.01314
G1 X121.648 Y153.746 E.11762
G1 X121.229 Y153.746 E.01314
G1 X121.229 Y149.994 E.11762
G1 X120.81 Y149.994 E.01314
G1 X120.81 Y153.746 E.11762
G1 X120.391 Y153.746 E.01314
G1 X120.391 Y149.825 E.12294
M204 S1000
;WIPE_START
G1 F8640
G1 X120.391 Y153.116 E-.76
;WIPE_END
G1 E-.04 F2100
G1 Z.6 F720
G1 X90.787 Y61.612 F10800
G1 Z.2 F720
G1 E.8 F2100
M204 S800
;TYPE:Perimeter
;WIDTH:0.419999
G1 F1200
G1 X159.213 Y61.612 E2.14544
G1 X159.213 Y148.388 E2.72079
M73 P2 R70
M73 Q2 S71
G1 X90.787 Y148.388 E2.14544
G1 X90.787 Y61.672 E2.71891
M204 S1000
M73 Q2 S70
G1 X90.41 Y61.235 F10800
M204 S800
;TYPE:External perimeter
G1 F1200
G1 X159.59 Y61.235 E2.16909
G1 X159.59 Y148.765 E2.74444
G1 X90.41 Y148.765 E2.16909
G1 X90.41 Y61.295 E2.74256
M204 S1000
G1 X90.792 Y61.353 F10800
;WIPE_START
M73 P2 R69
G1 F8640
G1 X93.701 Y61.292 E-.76
;WIPE_END
G1 E-.04 F2100
G1 Z.6 F720
G1 X133.271 Y63.525 F10800
G1 Z.2 F720
G1 E.8 F2100
M204 S800
;TYPE:Perimeter
G1 F1200
G1 X133.287 Y63.604 E.0025
G1 X133.287 Y89.496 E.81185
G1 X133.213 Y89.776 E.00906
G1 X133.008 Y89.984 E.00918
G1 X132.721 Y90.062 E.0093
G1 X117.279 Y90.062 E.4842
G1 X116.992 Y89.984 E.0093
G1 X116.787 Y89.776 E.00918
G1 X116.713 Y89.496 E.00906
G1 X116.713 Y63.604 E.81185
G1 X116.756 Y63.386 E.00696
G1 X116.939 Y63.151 E.00933
G1 X117.279 Y63.038 E.01122
G1 X132.721 Y63.038 E.4842
G1 X133.061 Y63.151 E.01122
G1 X133.244 Y63.386 E.00933
G1 X133.26 Y63.466 E.00257
M204 S1000
G1 X132.91 Y63.604 F10800
M204 S800
;TYPE:External perimeter
G1 F1200
G1 X132.91 Y89.496 E.81185
G1 X132.865 Y89.619 E.00409
G1 X132.721 Y89.685 E.00495
G1 X117.279 Y89.685 E.4842
G1 X117.135 Y89.619 E.00495
G1 X117.09 Y89.496 E.00409
G1 X117.09 Y63.604 E.81185
G1 X117.165 Y63.453 E.00529
G1 X117.279 Y63.415 E.00374
G1 X132.721 Y63.415 E.4842
G1 X132.835 Y63.453 E.00374
G1 X132.883 Y63.55 E.00341
M204 S1000
G1 X133.296 Y63.707 F10800
;WIPE_START
G1 F8640
G1 X132.887 Y66.841 E-.76
;WIPE_END
G1 E-.04 F2100
G1 Z.6 F720
G1 X132.809 Y118.488 F10800
G1 Z.2 F720
G1 E.8 F2100
M204 S800
;TYPE:Perimeter
G1 F1200
G1 X132.721 Y118.512 E.00286
G1 X117.279 Y118.512 E.4842
G1 X116.992 Y118.434 E.0093
G1 X116.787 Y118.226 E.00918
G1 X116.713 Y117.946 E.00906
G1 X116.713 Y92.054 E.81185
G1 X116.787 Y91.774 E.00906
G1 X116.992 Y91.566 E.00918
G1 X117.279 Y91.488 E.0093
G1 X132.721 Y91.488 E.4842
G1 X133.008 Y91.566 E.0093
M73 P3 R69
M73 Q3 S70
G1 X133.213 Y91.774 E.00918
G1 X133.287 Y92.054 E.00906
G1 X133.287 Y117.946 E.81185
G1 X133.213 Y118.226 E.00906
G1 X133.008 Y118.434 E.00918
G1 X132.867 Y118.472 E.00456
M204 S1000
G1 X132.721 Y118.135 F10800
M204 S800
;TYPE:External perimeter
G1 F1200
G1 X117.279 Y118.135 E.4842
G1 X117.135 Y118.069 E.00495
G1 X117.09 Y117.946 E.00409
G1 X117.09 Y92.054 E.81185
G1 X117.135 Y91.931 E.00409
G1 X117.279 Y91.865 E.00495
G1 X132.721 Y91.865 E.4842
G1 X132.865 Y91.931 E.00495
G1 X132.91 Y92.054 E.00409
G1 X132.91 Y117.946 E.81185
G1 X132.865 Y118.069 E.00409
G1 X132.776 Y118.11 E.00307
M204 S1000
G1 X132.618 Y118.521 F10800
;WIPE_START
G1 F8640
G1 X129.485 Y118.115 E-.76
;WIPE_END
G1 E-.04 F2100
G1 Z.6 F720
G1 X132.817 Y146.93 F10800
G1 Z.2 F720
G1 E.8 F2100
M204 S800
;TYPE:Perimeter
G1 F1200
G1 X132.721 Y146.962 E.00317
G1 X117.279 Y146.962 E.4842
G1 X116.939 Y146.849 E.01122
G1 X116.756 Y146.614 E.00933
G1 X116.713 Y146.396 E.00696
G1 X116.713 Y120.504 E.81185
G1 X116.787 Y120.224 E.00906
G1 X116.992 Y120.016 E.00918
G1 X117.279 Y119.938 E.0093
G1 X132.721 Y119.938 E.4842
G1 X133.008 Y120.016 E.0093
G1 X133.213 Y120.224 E.00918
G1 X133.287 Y120.504 E.00906
G1 X133.287 Y146.396 E.81185
G1 X133.244 Y146.614 E.00696
G1 X133.061 Y146.849 E.00933
G1 X132.874 Y146.911 E.00617
M204 S1000
G1 X132.721 Y146.585 F10800
M204 S800
;TYPE:External perimeter
G1 F1200
G1 X117.279 Y146.585 E.4842
G1 X117.165 Y146.547 E.00374
G1 X117.09 Y146.396 E.00529
G1 X117.09 Y120.504 E.81185
G1 X117.135 Y120.381 E.00409
G1 X117.279 Y120.315 E.00495
G1 X132.721 Y120.315 E.4842
G1 X132.865 Y120.381 E.00495
G1 X132.91 Y120.504 E.00409
G1 X132.91 Y146.396 E.81185
G1 X132.835 Y146.547 E.00529
G1 X132.778 Y146.566 E.00186
M204 S1000
G1 X132.618 Y146.971 F10800
;WIPE_START
G1 F8640
G1 X129.487 Y146.57 E-.76
;WIPE_END
G1 E-.04 F2100
G1 Z.6 F720
G1 X158.278 Y61.782 F10800
G1 Z.2 F720
G1 E.8 F2100
M204 S800
;TYPE:Solid infill
;WIDTH:0.421181
G1 F1200
G1 X158.874 Y62.377 E.02647
G1 X158.874 Y62.912 E.01683
G1 X157.913 Y61.951 E.04272
G1 X157.378 Y61.951 E.01683
G1 X158.874 Y63.447 E.06651
G1 X158.874 Y63.982 E.01683
G1 X156.843 Y61.951 E.09031
G1 X156.308 Y61.951 E.01683
G1 X158.874 Y64.517 E.1141
G1 X158.874 Y65.052 E.01683
G1 X155.773 Y61.951 E.13789
G1 X155.239 Y61.951 E.01683
G1 X158.874 Y65.586 E.16169
G1 X158.874 Y66.121 E.01683
G1 X154.704 Y61.951 E.18548
G1 X154.169 Y61.951 E.01683
G1 X158.874 Y66.656 E.20928
G1 X158.874 Y67.191 E.01683
G1 X153.634 Y61.951 E.23307
G1 X153.099 Y61.951 E.01683
G1 X158.874 Y67.726 E.25687
G1 X158.874 Y68.261 E.01683
G1 X152.564 Y61.951 E.28066
G1 X152.029 Y61.951 E.01683
G1 X158.874 Y68.796 E.30446
G1 X158.874 Y69.331 E.01683
G1 X151.494 Y61.951 E.32825
G1 X150.959 Y61.951 E.01683
G1 X158.874 Y69.866 E.35205
G1 X158.874 Y70.401 E.01683
G1 X150.424 Y61.951 E.37584
G1 X149.889 Y61.951 E.01683
G1 X158.874 Y70.936 E.39963
G1 X158.874 Y71.471 E.01683
G1 X149.354 Y61.951 E.42343
G1 X148.819 Y61.951 E.01683
G1 X158.874 Y72.006 E.44722
G1 X158.874 Y72.541 E.01683
G1 X148.284 Y61.951 E.47102
G1 X147.749 Y61.951 E.01683
M73 Q3 S69
G1 X158.874 Y73.076 E.49481
G1 X158.874 Y73.611 E.01683
G1 X147.214 Y61.951 E.51861
G1 X146.679 Y61.951 E.01683
G1 X158.874 Y74.146 E.5424
G1 X158.874 Y74.681 E.01683
G1 X146.144 Y61.951 E.5662
G1 X145.61 Y61.951 E.01683
G1 X158.874 Y75.215 E.58999
G1 X158.874 Y75.75 E.01683
G1 X145.075 Y61.951 E.61379
G1 X144.54 Y61.951 E.01683
G1 X158.874 Y76.285 E.63758
G1 X158.874 Y76.82 E.01683
G1 X144.005 Y61.951 E.66137
G1 X143.47 Y61.951 E.01683
G1 X158.874 Y77.355 E.68517
G1 X158.874 Y77.89 E.01683
G1 X142.935 Y61.951 E.70896
G1 X142.4 Y61.951 E.01683
G1 X158.874 Y78.425 E.73276
G1 X158.874 Y78.96 E.01683
G1 X141.865 Y61.951 E.75655
G1 X141.33 Y61.951 E.01683
G1 X158.874 Y79.495 E.78035
G1 X158.874 Y80.03 E.01683
G1 X140.795 Y61.951 E.80414
G1 X140.26 Y61.951 E.01683
G1 X158.874 Y80.565 E.82794
G1 X158.874 Y81.1 E.01683
G1 X139.725 Y61.951 E.85173
G1 X139.19 Y61.951 E.01683
G1 X158.874 Y81.635 E.87553
G1 X158.874 Y82.17 E.01683
M73 P4 R69
M73 Q4 S69
G1 X138.655 Y61.951 E.89932
G1 X138.12 Y61.951 E.01683
G1 X158.874 Y82.705 E.92311
G1 X158.874 Y83.24 E.01683
M73 P4 R68
G1 X137.585 Y61.951 E.94691
G1 X137.05 Y61.951 E.01683
G1 X158.874 Y83.775 E.9707
G1 X158.874 Y84.309 E.01683
G1 X136.516 Y61.951 E.9945
G1 X135.981 Y61.951 E.01683
G1 X158.874 Y84.844 E1.01829
G1 X158.874 Y85.379 E.01683
G1 X135.446 Y61.951 E1.04209
G1 X134.911 Y61.951 E.01683
G1 X158.874 Y85.914 E1.06588
G1 X158.874 Y86.449 E.01683
G1 X134.376 Y61.951 E1.08968
G1 X133.841 Y61.951 E.01683
G1 X158.874 Y86.984 E1.11347
G1 X158.874 Y87.519 E.01683
G1 X133.306 Y61.951 E1.13727
G1 X132.771 Y61.951 E.01683
G1 X158.874 Y88.054 E1.16106
G1 X158.874 Y88.589 E.01683
